X:1
T:Hellas, ie suis mary
T:Hellas, ie suis mary
T:Clement Janequin
T:Source : Trium vocum cantiones---Nürnberg---J.Petreius---1541. Editor : André Vierendeels 09/10/16).
T:Notes : Original clefs : C3, C4, F4 Editorial accidentals above the staff Original note values have been halved Square brackets indicate ligatures
T:#
T:©
T:©
T:©
T:©
T:©
C:Clement Janequin
Z:©
%%score [ 1 2 3 ]
L:1/8
Q:1/4=115
M:2/2
K:F
V:1 treble-8 nm="Tenor 1" snm="T 1"
V:2 treble-8 nm="Tenor 2" snm="T 2"
V:3 bass nm="Bass" snm="B"
V:1
 d4 f4- | f2 e2 d2 g2- | g2 f2 g4 | z2 d2 f4 | z8 | z2 d2 f4 | z2 f2 f3 e/d/ | f2 e2 d2 g2- | %8
w: Hel- las,|_ ie suis ma-|* * ry,|hel- las,||hel- las,|de ces _ _|_ maul- dits ia-|
"^#" g2 f2 g4 | z2 G2 BA Bc | d4 z2 D2 | FEFG A3 B | c2 d3 cBA | B3 A/G/ F2 A2 | A2 G2 A2 c2- | %15
w: * * loux,|qui on _ sur _|moy, qui|ont _ _ _ _ _|_ sur _ _ _|_ _ _ moy, si|grant fan- ta- xie,|
 c2 B3 F f2- | fe e3 d d2- | dccB/c/ d4- | d8 | z2 A2 A2 A2 | c6 BA | G2 c2 c3 B | A2 B4 A2- | %23
w: _ _ _ _||||leur fem- mes|vont _ _|_ bon- vy- *|e, heu- re-|
 A2 G2 A3 B | cA B2 A2 d2- | d2 c2 d4 | z2 A2 GABc | A2 d2 d2 c2 | d4 z2 d2 | cB/A/ B3 A A2- | %30
w: * ne de _|_ _ _ _ my-|* * e,|hel- las _ _ _|_ il leur sem-|bloit, il|leur _ _ sem- * *|
 A2 G2 A2 B2- | B2 AG F2 B2- | BA A3 G G2- | GFFE/F/ G4 | B4 A4 | z2 A2 GABc | A2 d2 d2 c2 | %37
w: * * bloit que|_ ien _ fus- se|_ _ a- * mou-||* reulx,|hel- las _ _ _|_ il- leur sem-|
 d4 z2 d2 | cB/A/ B3 A A2- | A2 G2 A2 B2- | B2 AG F2 B2- | BA A3 G G2- | GFFE/F/ GABc | %43
w: bloit, que-|ien _ _ _ _ fus-||* * * se a-|* * mou- * *||
 d3 e f2 de | fg a3 g g2- |"^#""^#" gffe/f/ g4- | g8 |] %47
w: ||* * * * * reulx.|_|
V:2
 G4 F3 G | AB c2 B2 AG | A4 G4 | z2 G2 A3 B | c2 d4 c2 | B4 A2 d2 | z2 d2 d3 c/B/ | d2 c4 B2 | %8
w: Hel- las, _|_ _ ie suis _ _|ma- ry,|hel- las, ie|suis ma- *|* * ry,|de ces _ _|mau- dits ia-|
 A4 G4 | z4 d4- | d4 d4 | d4 c4- | c2 BA G4 | z2 G2 c4 | c4 c4 | d4 A4 | B4 A4- | A2 G2 A4 | %18
w: * loux,|qui|_ ont|sur moy,|_ _ _ _|si grant|fan- ta-|||* * xie,|
 z2 d2 d4 | d4 c4- | c2 BA G4 | z2 z2 c2 c2 | c2 d2 A4 | B4 A4- | A2 G2 A4 | z2 G2 F3 G | %26
w: leur fem-|mes vont|_ _ _ _|vy- e|heur ne de|_ my-|* * e,|hel- las,, _|
 AB c2 B2 G2 | A4 G4 | z2 G2 A3 B | c2 d4 c2 | B4 A2 d2 | z2 d2 d3 c/B/ | d2 c4 B2 | A4 G4 | %34
w: _ _ il leur _|sem- bloit,|il leur _|_ sem- *|* * bloit,|que ien _ _|fus- se a-|mou- reulx,|
 z2 G2 F3 G | AB c2 B2 G2 | A4 G4 | z2 G2 A3 B | c2 d4 c2 | B4 A2 d2 | z2 d2 d3 c/B/ | d2 c4 B2 | %42
w: hel;- las, _|_ _ il leur _|sem- bloit,|il leur _|_ sem- *|* * bloit,|que ien _ _|_ fus- se'a-|
 A4 G4 | z2 d2 d4 | d2 c4 B2 | A4 G4- | G8 |] %47
w: mou- reulx,|que ien|fus- se'a- mou-|* reulx.|_|
V:3
 G,,4 D,4- | D,2 C,2 G,4 | D,4 G,,4 | G,4 F,4 | z2 D,2 F,4 | G,4 D,3 E, | F,2 B,,C, D,E, F,2- | %7
w: Hel- las,|_ ie suis|ma- ry,|hel- las,|hel- las,|ie suis _|_ ma- * * * ry,|
 F,G, A,2 F,2 G,2 | D,3 C, B,,A,, C,2 | G,,4 z2 G,,2 | B,,A,, B,,C, D,4 | z2 D,2 F,E, F,G, | %12
w: _ de ces maul- dits|ia- * * * *|loux, qui|ont _ sur- * moy|qui on- * sur _|
 A,2 B,3 A,G,F, | G,2 B,2 A,2 F,2 | F,2 E,2 F,2 A,2 | G,4 F,4 | G,3 F, D,2 F,2 | E,4 D,4 | %18
w: moy si _ _ _|grant fan- * *|ta- * * *|xi- e,|fa- * * ta-|xi- e,|
 z2 D,2 D,2 D,2 | F,6 E,D, | C,8- | C,4 z2 C,2 | F,2 B,,2 F,4 | G,4 F,3 G, | A,F, G,2 D,2 F,2 | %25
w: leur fem- mes|vont _ _|_|* bon-|vy- e, heu-|re de _|_ _ my- * *|
 E,4 z2 D,2 |"^b" C,3 D, E,F, G,2 | F,2 D,2 E,4 | D,2 G,4 F,2 | E,2 D,2 F,4 | G,4 D,4 | %31
w: e, hel-|las, _ _ _ _|il leur sem-|||* bloit|
 z2 B,,2 B,,4- | B,,2 F,3 E, G,2 | D,4 G,,4- | G,,4 z2 D,2 | C,3 D, E,F, G,2 | F,2 D,2 E,4 | %37
w: que ien|_ fus- se a-|mou- reulx,|_ hel-|la, _ _ _ il|leur sem- *|
 D,2 G,4 F,2 | E,2 D,2 F,4 | G,4 D,4 | z2 B,,2 B,,4- | B,,2 F,3 E, G,2 |"^#" D,4 z2 G,,2- | %43
w: ||* bloit,|que ien|_ fus- se'a- mou-|reulx, a-|
 G,,A,,B,,C, D,2 B,,C, | D,E, F,3 E, G,2 | D,4 G,,4- | G,,8 |] %47
w: ||mou- reulxx.|_|

